X: 11972
T: Enez Sant Loran's
R: jig
M: 6/8
K: Adorian
ABG A2B|d3 e3|gfd edB|~G3 ~B3|
ABG A2B|d3 e3|gfd edB|1 A4 E2:|2 A6||
ede gfg|a3 e2f|gfd edB|~G3 ~B3|
ede gfg|a4 g2|gfd edB|1 A4 e2:|2 ABG EFG||

